X:2537
T:Polska från Södermanland
T:Svenska Folkdansar H4 nr 15
O:Södermanland
B:Traditioner av Svenska Folkdansar Häfte 4, nr 15
B:Jämför [[http://www.smus.se/earkiv/fmk/browselarge.php?lang=sw&katalogid=MMD+47&bildnr=00009|SMUS - katalog MMD47 bild 9]] nr 27 ur [[Notböcker/Daniel Danielssons notbok]]
R:Polska
Z:Nils L
M:3/4
U:w=wedge
U:t=tenuto
L:1/16
K:Dm
d2de {g/}f2ef d4 | D2DE G2FD ^C2A,2 | F2E2 D2E2 (F2G2) | A2A^G A4 A,4 ::
f2a2 e2g2 d2f2 | e2ed ^cdcB ABAG | wF2(FG) wA2wA2wA2wd2 | (^cd)ec d4 D4 :|
(:musicend:)
(:music:)
